public/icons/node-icon.svg

<svg width="129" height="128" viewBox="0 0 129 128" fill="none" xmlns="http://www.w3.org/2000/svg">
<g clip-path="url(#clip0_45_60)">
<path d="M98.1333 0H30.1333C13.5648 0 0.133301 13.4315 0.133301 30V98C0.133301 114.569 13.5648 128 30.1333 128H98.1333C114.702 128 128.133 114.569 128.133 98V30C128.133 13.4315 114.702 0 98.1333 0Z" fill="#F4F2ED"/>
<path d="M60.0721 15.5579C62.5316 14.1504 65.7346 14.1439 68.1916 15.5579C80.5526 22.5429 92.9176 29.5164 105.277 36.5054C107.602 37.8149 109.156 40.4019 109.133 43.0804V85.1029C109.15 87.8924 107.442 90.5414 104.989 91.8209C92.6686 98.7674 80.3541 105.722 68.0356 112.668C65.5261 114.103 62.2586 113.993 59.8266 112.44C56.1331 110.299 52.4331 108.168 48.7391 106.029C47.9841 105.579 47.1331 105.221 46.6001 104.489C47.0716 103.854 47.9141 103.775 48.5986 103.497C50.1401 103.007 51.5566 102.22 52.9726 101.456C53.3311 101.211 53.7681 101.305 54.1116 101.524C57.2701 103.335 60.4011 105.199 63.5701 106.993C64.2461 107.383 64.9306 106.865 65.5086 106.543C77.5986 99.7094 89.7036 92.9024 101.792 86.0669C102.24 85.8514 102.488 85.3759 102.451 84.8854C102.46 71.0229 102.453 57.1584 102.456 43.2954C102.507 42.7394 102.185 42.2274 101.681 41.9994C89.4036 35.0849 77.1316 28.1604 64.8561 21.2444C64.6434 21.0983 64.3915 21.0199 64.1335 21.0194C63.8755 21.019 63.6233 21.0966 63.4101 21.2419C51.1341 28.1604 38.8651 35.0919 26.5891 42.0054C26.0876 42.2339 25.7511 42.7374 25.8106 43.2954C25.8131 57.1584 25.8106 71.0229 25.8106 84.8874C25.7892 85.1269 25.8417 85.3673 25.9612 85.5759C26.0806 85.7846 26.2612 85.9516 26.4786 86.0544C29.7541 87.9119 33.0341 89.7564 36.3121 91.6079C38.1591 92.6014 40.4261 93.1924 42.4611 92.4309C44.2561 91.7869 45.5146 89.9544 45.4806 88.0484C45.4976 74.2669 45.4721 60.4834 45.4931 46.7034C45.4481 46.0919 46.0286 45.5864 46.6236 45.6444C48.1976 45.6334 49.7736 45.6229 51.3476 45.6484C52.0046 45.6334 52.4566 46.2924 52.3756 46.9084C52.3691 60.7774 52.3926 74.6464 52.3651 88.5149C52.3691 92.2114 50.8506 96.2334 47.4316 98.0419C43.2201 100.223 38.0141 99.7609 33.8531 97.6689C30.2511 95.8709 26.8131 93.7489 23.2751 91.8229C20.8161 90.5504 19.1161 87.8909 19.1336 85.1034V43.0804C19.1076 40.3464 20.7246 37.7124 23.1211 36.4219C35.4396 29.4704 47.7561 22.5129 60.0721 15.5579Z" fill="#81CD39"/>
<path d="M70.8192 44.6675C76.1917 44.3215 81.9432 44.4625 86.7777 47.1095C90.5212 49.1375 92.5962 53.3945 92.6622 57.553C92.5577 58.1135 91.9712 58.423 91.4357 58.3845C89.8772 58.3825 88.3177 58.406 86.7592 58.374C86.0977 58.3995 85.7137 57.79 85.6307 57.2055C85.1827 55.2155 84.0972 53.245 82.2247 52.285C79.3497 50.846 76.0167 50.9185 72.8812 50.9485C70.5932 51.0695 68.1322 51.268 66.1932 52.6135C64.7047 53.633 64.2527 55.691 64.7837 57.3485C65.2847 58.5385 66.6582 58.9225 67.7822 59.2765C74.2572 60.97 81.1182 60.801 87.4687 63.0295C90.0987 63.938 92.6707 65.7045 93.5707 68.4575C94.7482 72.1475 94.2322 76.5575 91.6067 79.5195C89.4777 81.957 86.3772 83.284 83.2847 84.0045C79.1707 84.922 74.9012 84.9455 70.7232 84.538C66.7947 84.09 62.7062 83.058 59.6737 80.3815C57.0802 78.1295 55.8137 74.6205 55.9392 71.2345C55.9692 70.6625 56.5387 70.2635 57.0867 70.3105C58.6562 70.298 60.2262 70.2935 61.7957 70.313C62.4227 70.268 62.8877 70.81 62.9197 71.401C63.2092 73.2965 63.9217 75.2865 65.5747 76.41C68.7652 78.4685 72.7687 78.3275 76.4217 78.385C79.4477 78.251 82.8452 78.2105 85.3152 76.21C86.6182 75.069 87.0042 73.16 86.6522 71.518C86.2707 70.1315 84.8202 69.4855 83.5747 69.063C77.1832 67.0415 70.2452 67.775 63.9157 65.4885C61.3457 64.5805 58.8607 62.8635 57.8737 60.2235C56.4962 56.487 57.1272 51.865 60.0277 49.0035C62.8557 46.156 66.9377 45.0595 70.8192 44.6675Z" fill="#81CD39"/>
</g>
<defs>
<clipPath id="clip0_45_60">
<rect width="128" height="128" fill="white" transform="translate(0.133301)"/>
</clipPath>
</defs>
</svg>

<svg xmlns="http://www.w3.org/2000/svg" width="129" height="128" fill="none"><g clip-path="url(#a)"><path fill="#F4F2ED" d="M98.133 0h-68c-16.568 0-30 13.431-30 30v68c0 16.569 13.432 30 30 30h68c16.569 0 30-13.431 30-30V30c0-16.569-13.431-30-30-30Z"/><path fill="#81CD39" d="M60.072 15.558c2.46-1.408 5.663-1.414 8.12 0 12.36 6.985 24.726 13.958 37.085 20.947 2.325 1.31 3.879 3.897 3.856 6.575v42.023c.017 2.79-1.691 5.438-4.144 6.718-12.32 6.946-24.635 13.901-36.953 20.847-2.51 1.435-5.777 1.325-8.21-.228-3.693-2.141-7.393-4.272-11.087-6.411-.755-.45-1.606-.808-2.139-1.54.472-.635 1.314-.714 1.999-.992 1.541-.49 2.958-1.277 4.374-2.041.358-.245.795-.151 1.139.068 3.158 1.811 6.29 3.675 9.458 5.469.676.39 1.36-.128 1.939-.45 12.09-6.834 24.195-13.64 36.283-20.476.448-.216.696-.691.659-1.182.009-13.862.002-27.727.005-41.59a1.3 1.3 0 0 0-.775-1.296c-12.277-6.914-24.55-13.839-36.825-20.755a1.28 1.28 0 0 0-1.446-.002c-12.276 6.918-24.545 13.85-36.82 20.763-.502.229-.839.732-.78 1.29.003 13.863 0 27.728 0 41.592a1.175 1.175 0 0 0 .669 1.167c3.275 1.858 6.555 3.702 9.833 5.554 1.847.993 4.114 1.584 6.15.823 1.794-.644 3.053-2.477 3.019-4.383.017-13.781-.009-27.565.012-41.345-.045-.611.536-1.117 1.13-1.059 1.575-.01 3.15-.021 4.725.004.657-.015 1.109.644 1.028 1.26-.007 13.87.017 27.738-.01 41.607.003 3.696-1.515 7.718-4.934 9.527-4.212 2.181-9.418 1.719-13.579-.373-3.602-1.798-7.04-3.92-10.578-5.846-2.459-1.273-4.159-3.932-4.141-6.72V43.08c-.026-2.734 1.59-5.368 3.987-6.658 12.319-6.952 24.635-13.91 36.951-20.864Z"/><path fill="#81CD39" d="M70.82 44.667c5.372-.346 11.123-.205 15.958 2.442 3.743 2.029 5.818 6.285 5.884 10.444-.104.56-.69.87-1.226.832-1.559-.002-3.118.021-4.677-.011-.661.026-1.045-.584-1.128-1.169-.448-1.99-1.534-3.96-3.406-4.92-2.875-1.439-6.208-1.366-9.344-1.336-2.288.12-4.749.319-6.688 1.665-1.488 1.019-1.94 3.077-1.41 4.735.502 1.19 1.875 1.574 3 1.928 6.474 1.693 13.335 1.524 19.686 3.752 2.63.909 5.202 2.675 6.102 5.428 1.177 3.69.661 8.1-1.964 11.063-2.13 2.437-5.23 3.764-8.322 4.484-4.114.918-8.384.941-12.562.534-3.928-.448-8.017-1.48-11.05-4.156-2.593-2.253-3.86-5.761-3.734-9.148.03-.572.6-.97 1.148-.923 1.57-.013 3.14-.018 4.709.002.627-.045 1.092.497 1.124 1.088.29 1.895 1.002 3.886 2.655 5.009 3.19 2.059 7.194 1.918 10.847 1.975 3.026-.134 6.423-.175 8.893-2.175 1.303-1.141 1.69-3.05 1.337-4.692-.381-1.386-1.832-2.032-3.077-2.455-6.392-2.022-13.33-1.288-19.66-3.575-2.57-.907-5.054-2.624-6.041-5.264-1.378-3.737-.747-8.359 2.154-11.22 2.828-2.848 6.91-3.944 10.791-4.337Z"/></g><defs><clipPath id="a"><path fill="#fff" d="M.133 0h128v128h-128z"/></clipPath></defs></svg>
